X: 22
T:
T:Delahunty's
R:hornpipe
E:7
M:C|
L:1/8
K:D
FG|ABAF DEFG|AGAB =c2 (3AB^c|dcde fdAF|DGGF G2FG|
ABAF DEFG|~A3B =c2 (3AB^c|dcde fdAG|F2D2 D2:|
de|~f3d ecAF|Gggf g2fg|agab agec|dcAF G2FG|
ABAF DEFG|~A3B =c2 (3AB^c|dcde fdAG|F2D2 D2:|
